X:56
T:London Waltz
O:No 56 Wm Clarke of Feltwell MS  1858
I:abc2nwc
M:3/4
L:1/8
K:C
G2|c3/2B/2 c3/2d/2 e3/2f/2|g2g2e2|a2a2f2|g2g2e2|
cB cd ef|g2g2g2|a3/2b/2 c'3/2b/2 c'3/2a/2|g4:|
|:e2|f2d'3/2b/2 d'3/2f/2|e2c'3/2g/2 c'3/2e/2|d2b3/2g/2 b3/2d/2|
c2c'3/2g/2 c'3/2e/2|f2d'3/2b/2 d'3/2f/2|e2c'3/2g/2 c'3/2e/2|d2b3/2g/2 b3/2d/2|c'4|]

